X:225
T: Miller of Drone, The
S:Michael Gaskin, Scots-L, 9/97
M:4/4
L:1/8
Q:140
C:Nath. Gow.
S:The Skye Colletction
R:strathspey
K:A
c/2B/2|A<FF<A E>FE<C|B,c B2 Bc/2B/2|1 A<FF<A E>FE<C|D<FE>G A2 A:|
2 e>Bc>G A>EF>C|D>FE>G A2 A||c/2d/2 | e<cc<a e>e f/2e/2d/2c/2|e<cc<a ~f2 f>a|
e<cc>a e>e f/2e/2d/2c/2|{Bc}d>B{d}c>A {G}F2 Fc/2d/2|e<cc<a e>e f/2e/2d/2c/2|e>f{g}a>
g {ag}f2 f>g|(3agf (3efg (3aed (3cBA|(3dcB (3cBA (3Ffe (3dcB||
